src/lib/packages/icons/src/assets/line/trash-redo.svg

<svg width="24" height="24" viewBox="0 0 24 24" fill="none" xmlns="http://www.w3.org/2000/svg">
<path d="M21 5.25H17.441C16.54 5.25 16.502 5.136 16.255 4.396L16.053 3.789C15.746 2.869 14.889 2.25 13.919 2.25H10.081C9.11099 2.25 8.25302 2.868 7.94702 3.789L7.745 4.396C7.49799 5.137 7.46002 5.25 6.55902 5.25H3C2.586 5.25 2.25 5.586 2.25 6C2.25 6.414 2.586 6.75 3 6.75H4.29797L5.065 18.249C5.213 20.474 6.57701 21.75 8.80701 21.75H15.194C17.423 21.75 18.787 20.474 18.936 18.249L19.703 6.75H21C21.414 6.75 21.75 6.414 21.75 6C21.75 5.586 21.414 5.25 21 5.25ZM9.37 4.263C9.473 3.956 9.75799 3.75 10.081 3.75H13.919C14.242 3.75 14.528 3.956 14.63 4.263L14.832 4.87C14.876 5.001 14.92 5.128 14.968 5.25H9.03003C9.07803 5.127 9.12299 5 9.16699 4.87L9.37 4.263ZM17.438 18.149C17.343 19.582 16.629 20.25 15.193 20.25H8.80603C7.37003 20.25 6.65697 19.583 6.56097 18.149L5.80103 6.75H6.55798C6.68298 6.75 6.78699 6.737 6.89899 6.729C6.93299 6.734 6.96402 6.75 6.99902 6.75H16.999C17.035 6.75 17.065 6.734 17.099 6.729C17.211 6.737 17.315 6.75 17.44 6.75H18.197L17.438 18.149ZM15.03 11.821C15.323 12.114 15.323 12.589 15.03 12.882L13.679 14.233C13.533 14.379 13.341 14.453 13.149 14.453C12.957 14.453 12.765 14.38 12.619 14.233C12.326 13.941 12.326 13.465 12.619 13.172L12.863 12.927C12.191 12.941 11.531 13.214 11.037 13.722C10.366 14.416 10.1 15.389 10.328 16.322C10.426 16.724 10.18 17.131 9.77698 17.228C9.71698 17.243 9.657 17.249 9.599 17.249C9.261 17.249 8.95397 17.02 8.87097 16.677C8.52097 15.24 8.92802 13.746 9.96002 12.678C10.671 11.947 11.602 11.535 12.566 11.452C12.338 11.158 12.347 10.739 12.618 10.469C12.911 10.176 13.386 10.176 13.679 10.469L15.03 11.821Z" fill="currentColor"/>
</svg>

<svg xmlns="http://www.w3.org/2000/svg" width="24" height="24" fill="none"><path fill="currentColor" d="M21 5.25h-3.559c-.901 0-.939-.114-1.186-.854l-.202-.607a2.247 2.247 0 0 0-2.134-1.539h-3.838c-.97 0-1.828.618-2.134 1.539l-.202.607c-.247.741-.285.854-1.186.854H3a.75.75 0 0 0 0 1.5h1.298l.767 11.499c.148 2.225 1.512 3.501 3.742 3.501h6.387c2.229 0 3.593-1.276 3.742-3.501l.767-11.499H21a.75.75 0 0 0 0-1.5ZM9.37 4.263a.75.75 0 0 1 .711-.513h3.838c.323 0 .609.206.711.513l.202.607c.044.131.088.258.136.38H9.03c.048-.123.093-.25.137-.38l.203-.607Zm8.068 13.886c-.095 1.433-.809 2.101-2.245 2.101H8.806c-1.436 0-2.149-.667-2.245-2.101L5.801 6.75h.757c.125 0 .229-.013.341-.021.034.005.065.021.1.021h10c.036 0 .066-.016.1-.021.112.008.216.021.341.021h.757l-.759 11.399Zm-2.408-6.328a.75.75 0 0 1 0 1.061l-1.351 1.351a.748.748 0 0 1-1.06 0 .75.75 0 0 1 0-1.061l.244-.245a2.621 2.621 0 0 0-1.826.795 2.777 2.777 0 0 0-.709 2.6.749.749 0 1 1-1.457.355 4.271 4.271 0 0 1 1.089-3.999 4.113 4.113 0 0 1 2.606-1.226.74.74 0 0 1 .052-.983.75.75 0 0 1 1.061 0l1.351 1.352Z"/></svg>
